!!!COM: Mendelssohn, Felix 
!!!CDT: 1809///-1847///
!!!OTL@@DE: Lieder ohne Worte, <i>Trauermarsch</i>, Op. 62, No. 3
!!!OTL@EN: Song without words, <i>Sad March</i>, Op. 62, No. 3
!!!ODT: 1843/07/29/
!!!PDT: 1844///
!!!OMD: Andante maestoso
**kern	**kern	**dynam
*staff2	*staff1	*staff1/2
*Ipiano	*Ipiano	*Ipiano
*clefF4	*clefG2	*clefG2
*k[f#]	*k[f#]	*k[f#]
*e:	*e:	*e:
*M2/4	*M2/4	*M2/4
*MM44	*MM44	*MM44
48E'\ 48G'\LLL	48B'/ 48e'/LLL	f
48E'\ 48G'\	48B'/ 48e'/	.
48E'\ 48G'\JJJ	48B'/ 48e'/JJJ	.
=1	=1	=1
8.E\ 8.G\	8.B/ 8.e/	.
48E'\ 48G'\LLL	48B'/ 48e'/LLL	.
48E'\ 48G'\	48B'/ 48e'/	.
48E'\ 48G'\JJJ	48B'/ 48e'/JJJ	.
8.E\ 8.G\	8.B/ 8.e/	.
48E'\ 48G'\LLL	48B'/ 48e'/LLL	.
48E'\ 48G'\	48B'/ 48e'/	.
48E'\ 48G'\JJJ	48B'/ 48e'/JJJ	.
=2	=2	=2
[4EE/ [4E/	(4B/ 4e/ 4g/	.
8EE/] 8E/]	8G/) 8B/ 8e/	.
16r	16r	.
*clefG2	*	*
48e'/ 48g'/LLL	48b'\ 48ee'\ 48bb'\LLL	ff
48e'/ 48g'/	48b'\ 48ee'\ 48bb'\	.
48e'/ 48g'/JJJ	48b'\ 48ee'\ 48bb'\JJJ	.
=3	=3	=3
8.B/ 8.f#/	8.b\ 8.dd#\ 8.bb\	.
48e'/ 48g'/LLL	48b'\ 48ee'\ 48bb'\LLL	.
48e'/ 48g'/	48b'\ 48ee'\ 48bb'\	.
48e'/ 48g'/JJJ	48b'\ 48ee'\ 48bb'\JJJ	.
8.B/ 8.f#/	8.b\ 8.dd#\ 8.bb\	.
48e'/ 48g'/LLL	48b'\ 48ee'\ 48bb'\LLL	.
48e'/ 48g'/	48b'\ 48ee'\ 48bb'\	.
48e'/ 48g'/JJJ	48b'\ 48ee'\ 48bb'\JJJ	.
=4	=4	=4
[4B/ [4d#/ [4f#/ [4b/	4dd#\ 4ff#\ (4ddd#\	.
8B/] 8d#/] 8f#/] 8b/]	8ff#\ 8fff#\L)	.
8r	8A\ 8B\J	mf
*clefF4	*	*
=5	=5	=5
2EEE/ 2EE/	8G/ 8B/ 8e/L	.
.	8G/ 8B/ 8e/	.
.	8B/ 8e/ 8g/	.
.	8B/ 8f#/ 8a/J	.
=6	=6	=6
2EE/ 2E/	8B/ 8e/ 8g/ 8b/L	.
.	24e'/ 24f#'/ 24a'/L	.
.	24e'/ 24g'/ 24b'/	.
.	24e'/ 24a'/ 24cc'/JJ	.
.	8e/ 8g/ 8b/L	<
.	16.B/ 16.e/ (16.g/L	.
.	32f#/ 32a/JJk)	.
=7	=7	=7
4EE/ 4E/	8e/ 8g/ 8b/L	.
.	8e/ 8g/ 8b/	.
4AAA/ 4AA/	8a/ 8cc/ 8gg/	.
.	8a/ 8cc/ 8ff#/J	.
=8	=8	=8
4.BBB/ 4.BB/	4g\ 4b\ (4ee\	.
.	8f#/ 8b/ 8dd#/)	.
8B\	(8f#/	p
=9	=9	=9
8e\L	8g/L)	.
8dn\	8f#/ 8g/	.
8c\	8e/ 8g/	.
&(8B\J&)	8d/ 8g/J	.
=10	=10	=10
*	*^	*
(8A\L	8c/ 8g/L	8r	.
8D\	24f#/L	8d\L	.
.	24a/	.	.
.	24cc/JJ	.	.
8G\	8b/L	8d\ 8g\J	.
8GG\J)	(16.g/L	8B\ 8d#\	.
.	32f#/JJk)	.	.
=11	=11	=11	=11
8C/L	8c/ 8e/L	4r	>
8AA/ 8E/	8c/ 8e/J	.	.
8GG/ 8E/	8B/ 8e/L	8r	.
8AA/ 8E/J	(16.f#/L	8F#\ 8A\ 8c\	.
.	32d#/JJk)	.	.
=12	=12	=12	=12
4.EE/ 4.E/	8d#/	8F#\ 8A\ 8c\	.
.	4e/	4G\ 4B\	.
8BB/ 8B/	8r	8r	.
*	*v	*v	*
=13	=13	=13
4EEE/ 4EE/	8E/ 8G/ 8B/ 8e/L	mf
.	8E/ 8G/ 8B/ 8e/J	.
4BBB/ 4BB/	8G/ 8B/ 8e/ 8g/L	.
.	8A/ 8B/ 8f#/ 8a/J	.
=14	=14	=14
4.EE/ 4.E/	8B/ 8e/ 8g/ 8b/L	.
.	24A'/ 24e'/ 24f#'/ 24a'/L	.
.	24B'/ 24e'/ 24g'/ 24b'/	.
.	24c'/ 24e'/ 24a'/JJ	.
.	8B/ 8e/ 8g/ 8b/L	<
8BBB/ 8BB/	16.G/ 16.B/ 16.e/ 16.g/L	.
.	32A/ 32f#/ 32a/JJk	.
=15	=15	=15
4EE/ 4E/	8B/ 8e/ 8g/ 8b/L	.
.	8B/ 8e/ 8g/ 8b/	f
4AA\ 4A\	8b/ 8cc/ (8gg/	.
.	8a/ 8cc/ 8ff#/J)	.
=16	=16	=16
4.BB\ 4.B\	4g\ 4b\ (4ee\	.
.	8f#/ 8b/ 8dd#/)	.
8B\	(8f#/	p
=17	=17	=17
8e\L	8g/L)	.
8d\	8f#/ 8g/	.
8c\	8e/ 8g/	.
&(8B\J&)	8d/ 8g/J	.
=18	=18	=18
*	*^	*
(8A\L	8c#/ 8g/L	8r	.
8D\	(24f#/L	8d\L	.
.	24a/	.	.
.	24cc/JJ	.	.
8G\	8b/L)	8d\ 8g\J	.
8GG\J)	(16.g/L	8B\ 8d\	>
.	32fn/JJk)	.	.
=19	=19	=19	=19
8C/L	8c/ 8e/L	4r	.
8AA/ 8E/	8c/ 8e/J	.	.
8GG/ 8E/	8B/ (8e/L	8r	.
8AA/ 8E/J	16.f#/L	8F#\ 8A\ 8c\	.
.	32d#/JJk)	.	.
=20	=20	=20	=20
4.EE/ 4.E/	8d#/	8F#\ 8A\ 8c\	.
.	4e/	4G\ 4B\	.
8r	8B/	8r	mf
*	*v	*v	*
=21	=21	=21
4BBB/ 4BB/	8F#/ 8B/ 8d#/L	mf
.	8F#/ 8B/ 8d#/J	.
4BBB/ 4BB/	8G/ 8B/ 8c#/ 8e/L	.
.	24G'/ 24c#'/ 24e'/L	<
.	24A'/ 24d#'/ 24f#'/	.
.	24B'/ 24e'/ 24g'/JJ	.
=22	=22	=22
*^	*	*
8BB/L	4BBB\	8A/ 8d#/ 8f#/L	.
8BB/	.	8A/ 8d#/ 8f#/J	.
8BB/	4BBB\	8B/ 8e/ 8g/L	.
8BB/J	.	24B'/ 24e'/ 24g'/L	.
.	.	24B'/ 24f#'/ 24a'/	.
.	.	24B'/ 24g'/ 24b'/JJ	.
*v	*v	*	*
=23	=23	=23
8BBB/ 8BB/L	8c/ 8e/ 8f#/ 8a/L	.
8BBB/ 8BB/	24c'/ 24e'/ 24f#'/ 24a'/L	.
.	24e'/ 24g'/ 24b'/	.
.	24e'/ 24a'/ 24cc'/JJ	.
8BBB/ 8BB/	8e/ 8g/ 8b/L	.
8BBB/ 8BB/J	24e'/ 24g'/ 24b'/L	.
.	24f#'/ 24a'/ 24dd#'/	.
.	24g'/ 24b'/ 24ee'/JJ	.
=24	=24	=24
8BBB/ 8BB/L	8f#\ 8a\ 8dd#\L	.
24BBB'/ 24BB'/L	24f#'\ 24a'\ 24dd#'\L	.
24BBB'/ 24BB'/	24g'\ 24b'\ 24ee'\	.
24BBB'/ 24BB'/JJ	24a'\ 24cc'\ 24ff#'\JJ	.
8BBB/ 8BB/L	8g\ 8b\ 8ee\L	.
24BBB'/ 24BB'/L	24g'\ 24b'\ 24ee'\L	.
24BBB'/ 24BB'/	24g'\ 24b'\ 24ff#'\	.
24BBB'/ 24BB'/JJ	24g'\ 24b'\ 24gg'\JJ	.
=25	=25	=25
8C^\ 8c^\L	8ee^\ 8aa^\L	f
8BB^\ 8B^\	8ddn^\ 8gg^\ 8aa^\	.
8AA^\ 8A^\	8cc^\ 8ff#^\ 8aa^\	.
8GG^\ 8G^\J	8b^\ 8ee^\ 8aa^\J	.
=26	=26	=26
8FF#^/ 8F#^/L	8a^\ 8dd^\ 8aa^\L	.
8EE^/ 8E^/J	8g^\ 8cc^\ 8aa^\J	.
8DD#^/ 8D#^/	8f#^\ 8b^\ 8aa^\	.
24BBB'/ 24BB'/LL	24d#'/ 24a'/ 24b'/LL	.
24BBB'/ 24BB'/	24e'/ 24a'/ 24cc#'/	.
24BBB'/ 24BB'/JJ	24f#'/ 24a'/ 24dd#'/JJ	.
=27	=27	=27
8CC/ 8C/L	8e/ 8g/ 8ee/L	ff
8CC/ 8C/J	8f#/ 8a/ 8ddn/ 8ee/J	.
8CC/ 8C/L	8e/ 8g/ 8cc/ 8ee/L	.
8CC/ 8C/J	8dn/ 8f#/ 8b/ 8ee/J	.
=28	=28	=28
*	*^	*
8C\ 8c\L	8e\ 8a\ 8ee\L	4r	.
8C\ 8B\J	8d\ 8g\ 8ee\J	.	.
8C\ 8A\ 8c\L	8f#\ 8ee\L	8r	.
8CC\ 8C\J	8A\ 8e\J	16r	ff
.	.	48F#'/ 48f#'/LLL	.
.	.	48F#'/ 48f#'/	.
.	.	48F#'/ 48f#'/JJJ	.
*	*v	*v	*
=29	=29	=29
8BBB/ 8BB/	8.F#/ 8.B/ 8.d#/ 8.f#/	.
8r	.	.
.	48F#'/ 48f#'/LLL	.
.	48F#'/ 48f#'/	.
.	48F#'/ 48f#'/JJJ	.
4r	8.F#/ 8.f#/	.
.	48F#'/ 48f#'/LLL	.
.	48F#'/ 48f#'/	.
.	48F#'/ 48f#'/JJJ	.
=30	=30	=30
4r	4A/ (4a/	.
8r	8F#/ 8f#/)	.
16r	16r	.
*clefG2	*	*
48f#'/ 48a'/LLL	48cc'\ 48ee'\ 48ff#'\ 48aa'\LLL	ff
48f#'/ 48a'/	48cc'\ 48ee'\ 48ff#'\ 48aa'\	.
48f#'/ 48a'/JJJ	48cc'\ 48ee'\ 48ff#'\ 48aa'\JJJ	.
=31	=31	=31
8.B/ 8.f#/	8.b\ 8.dd#\ 8.ff#\ 8.aa\	.
48f#'/ 48a'/LLL	48cc'\ 48ee'\ 48ff#'\ 48aa'\LLL	.
48f#'/ 48a'/	48cc'\ 48ee'\ 48ff#'\ 48aa'\	.
48f#'/ 48a'/JJJ	48cc'\ 48ee'\ 48ff#'\ 48aa'\JJJ	.
8.B/ 8.f#/	8.b\ 8.dd#\ 8.ff#\ 8.aa\	.
48f#'/ 48a'/LLL	48cc'\ 48ee'\ 48ff#'\ 48aa'\LLL	.
48f#'/ 48a'/	48cc'\ 48ee'\ 48ff#'\ 48aa'\	.
48f#'/ 48a'/JJJ	48cc'\ 48ee'\ 48ff#'\ 48aa'\JJJ	.
=32	=32	=32
4.B/ 4.f#/ 4.a/ 4.b/	4dd#\ 4aa\ (4ddd#\	.
.	8ff#\ 8fff#\	.
*clefF4	*	*
8BBB/ 8BB/	8A/ 8B/	ff
=33	=33	=33
4EEE/ 4EE/	8E/ 8G/ 8B/ 8e/L	.
.	8E/ 8G/ 8B/ 8e/	.
4DDDn/ 4DDn/	8G/ 8B/ 8dn/ 8g/	.
.	8A/ 8d/ 8f#/ 8a/J	.
=34	=34	=34
4.GGG/ 4.GG/	8B/ 8d/ 8g/ 8b/L	.
.	24A'/ 24d'/ 24f#'/ 24a'/L	.
.	24B'/ 24d'/ 24g'/ 24b'/	.
.	24c'/ 24d'/ 24a'/ 24cc'/JJ	.
.	8B/ 8d/ 8g/ 8b/L	.
8DDD/ 8DD/	16.G/ 16.B/ 16.d/ 16.g/L	.
.	32A/ 32d/ 32f#/ 32a/JJk	.
=35	=35	=35
4GGG/ 4GG/	8B/ 8d/ 8g/ 8b/L	.
.	8B/ 8d/ 8g/ 8b/	.
4FFF#/ 4FF#/	8g/ 8a/ 8cc#/ 8gg/	.
.	8f#/ 8a/ 8cc#/ 8ff#/J	.
=36	=36	=36
4.BBB/ 4.BB/	4e/ 4g/ 4b/ 4ee/	.
.	8d#/ 8f#/ 8b/ 8dd#/)	.
8BBB'/ 8BB'/	8F#/ 8B/ 8d#/ 8f#/	>
=37	=37	=37
8EE'/ 8E'/L	(8G/ 8B/ 8g/L	.
8DD'/ 8D'/	8G/ 8B/ 8fn/ 8g/	.
8CC'/ 8C'/	8G/ 8c/ 8e/ 8g/	.
8BBB-'/ 8BB-'/J	8G/) 8d/ 8g/J	.
=38	=38	=38
8AAA'/ 8AA'/L	8A/ 8c#/ 8e/ 8g/L	.
8DD'/ 8D'/	24cn/ 24d/ 24f#/L	.
.	24a/	.
.	24cc/JJ	.
8GG'/ 8G'/	8B/ 8d/ 8g/ 8b/L	.
8GGG'/ 8GG'/J	16.B/ 16.d#/ 16.g/L	.
.	32f#/JJk	.
=39	=39	=39
*^	*	*
4r	8CC'\ 8C'\L	8c/ 8e/L	.
.	8CC'\ 8C'\	8A/ 8e/	.
8r	8BBB'\ 8BB'\	8G#/ 8B/ 8e/	.
16r	8AAA'\ 8AA'\J	8A/ 8c/ 8e/J	>
48E/LLL	.	.	.
48E/	.	.	.
48E/JJJ	.	.	.
=40	=40	=40	=40
8.E/L	4.GGG#\ 4.GG#\	4.B/ 4.d/ 4.e/	.
48E/LL	.	.	.
48E/	.	.	.
48E/JJJ	.	.	.
8E/	.	.	.
8r	8r	(16.gn/LL	.
.	.	32fn/JJk)	.
=41	=41	=41	=41
4r	8r	8e/L	.
.	8CC'\ 8C'\L	8A/ 8e/	.
8r	8BBB'\ 8BB'\	8G#/ 8B/ 8e/	.
16r	8AAA'\ 8AA'\J	8A/ 8c/ 8e/J	.
48E/LLL	.	.	.
48E/	.	.	.
48E/JJJ	.	.	.
=42	=42	=42	=42
8.E/L	4.GGG#\ 4.GG#\	4.B/ 4.d/ 4.e/	.
48E/LL	.	.	.
48E/	.	.	.
48E/JJJ	.	.	.
8E/	.	.	.
8r	8r	(16.gn/LL	p
.	.	32fn/JJk)	.
*v	*v	*	*
=43	=43	=43
*	*^	*
8r	8e/L	4r	.
8AAA/ 8AA/L	8A/ 8c/ 8e/J	.	p
8CC/ 8C/	8A/ 8c/ 8e/L	8r	.
8AAA/ 8AA/J	(16.f#/L	8F#\ 8A\ 8c\	.
.	32d#/JJk)	.	.
*	*v	*v	*
=44	=44	=44
*^	*	*
4r	[2EEE\ [2EE\	4F#/ 4A/ 4c/ (4d#/	.
8r	.	[4G/ [4B/ [4e/	.
16r	.	.	.
48E'/LLL	.	.	.
48E'/	.	.	.
48E'/JJJ	.	.	.
=45	=45	=45	=45
8.E/L	2EEE\] 2EE\]	2G/] 2B/] 2e/])	>
48E'/LL	.	.	.
48E'/	.	.	.
48E'/JJJ	.	.	.
8.E/L	.	.	.
48E'/LL	.	.	.
48E'/	.	.	.
48E'/JJJ	.	.	.
=46	=46	=46	=46
(4G^/	4r	4r	.
8E/)	8r	8r	.
16r	8r	16r	.
48B'\ 48e'\ 48g'\LLL	.	48b'\ 48ee'\ 48bb'\LLL	pp
48B'\ 48e'\ 48g'\	.	48b'\ 48ee'\ 48bb'\	.
48B'\ 48e'\ 48g'\JJJ	.	48b'\ 48ee'\ 48bb'\JJJ	.
*v	*v	*	*
=47	=47	=47
8.B\ 8.e\ 8.g\	8.b\ 8.ee\ 8.bb\	.
48G'\ 48B'\ 48e'\ 48g'\LLL	48b'\ 48ee'\ 48bb'\LLL	.
48G'\ 48B'\ 48e'\ 48g'\	48b'\ 48ee'\ 48bb'\	.
48G'\ 48B'\ 48e'\ 48g'\JJJ	48b'\ 48ee'\ 48bb'\JJJ	.
8.G\ 8.B\ 8.e\ 8.g\	8.b\ 8.ee\ 8.bb\	.
48EE'/ 48E'/LLL	48ee'\ 48gg'\ 48bb'\LLL	.
48EE'/ 48E'/	48ee'\ 48gg'\ 48bb'\	.
48EE'/ 48E'/JJJ	48ee'\ 48gg'\ 48bb'\JJJ	.
=48	=48	=48
(4EE/ 4E/	4ee\ 4gg\ (4bb\	.
4EEE;/)	4eee;\)	.
==	==	==
*-	*-	*-
!!!ENC: Craig Stuart Sapp
!!!END: 2004/12/01/
